X: 1
T: Reunion Jig (\251Russ Barenberg)
M: 6/8
L: 1/8
R: jig
K: A
"A"c3 "E"BAG|"A"AED CB,A,|"D"DEF "A/C#"EAc|"Bm"dec "E"BAB|
"A"cdc "E"BAG|"A"AED CB,A,|"D"DEF "E"EAG|1"A"A3-A2 B:|[2 "A"A3-AcA||
"E"BEE cEE| edc Bcd|"A"cAA ABc|"E"BEE E2 c|BEE cEE|
"E" edc Bcd|1"A"cAA eAc "E"B3-B2 c:|[2"A"cAA "F#m"ABc| "Bm"dFc "E"Bcd:|
["Transition""A"cAA "F#m"ABc| "Bm"dFc "E"Bc^d|]
%%text 

#include "RightHeader.h"
%%text Set 101, Continued
$SmallRMargin
$SmallLMargin
%%scale .8
